X:200
T: John P.Blessing's Favorite
S: Treoir
Z: B.Black
M: 4/4
L: 1/8
R: reel
K: D
dB|AFDF EFDB,|AFAB e2 dB|AFDF EF D2|1\
AFAB d2 :|2 AFAB d4||
defd efdB|AFAB e2 fe|defd efdB|AFAB d3 A |
defd efdB|AFAB e2 fe|df f2 afbf|1\
afef d3 A :|2 afef d4 ||
